logos/aws-glacier.svg

<?xml version="1.0" encoding="UTF-8"?>
<svg width="256px" height="256px" viewBox="0 0 256 256" version="1.1" xmlns="http://www.w3.org/2000/svg" xmlns:xlink="http://www.w3.org/1999/xlink" preserveAspectRatio="xMidYMid">
    <title>AWS Glacier</title>
    <defs>
        <linearGradient x1="0%" y1="100%" x2="100%" y2="0%" id="linearGradient-1">
            <stop stop-color="#1B660F" offset="0%"></stop>
            <stop stop-color="#6CAE3E" offset="100%"></stop>
        </linearGradient>
    </defs>
    <g>
        <rect fill="url(#linearGradient-1)" x="0" y="0" width="256" height="256"></rect>
        <path d="M48.21248,66.91872 C50.91008,76.37472 82.07488,86.40032 123.20128,86.40032 C164.25728,86.40032 195.38688,76.40992 198.17408,66.96672 L198.37888,65.52672 C198.14528,61.31232 173.96608,44.80032 123.20128,44.80032 C72.42688,44.80032 48.25408,61.31552 48.02048,65.52992 L48.21248,66.91872 Z M195.90208,128.60512 L194.67648,137.25472 C205.42848,139.90112 207.35808,138.28512 207.377364,138.26912 C207.38048,138.19232 207.23328,135.38592 195.90208,128.60512 L195.90208,128.60512 Z M146.17088,209.78592 L146.97728,216.13472 C139.30688,217.10752 131.30048,217.60032 123.18208,217.60032 C98.75648,217.60032 60.08128,212.18912 59.65248,197.68672 L41.89888,68.00992 C41.75488,67.38592 41.66848,66.74912 41.63648,66.10272 L41.62688,66.03552 L41.63008,66.03552 C41.62368,65.88832 41.60128,65.74752 41.60128,65.60032 C41.60128,54.50912 73.38688,38.40032 123.20128,38.40032 C173.01248,38.40032 204.80128,54.50912 204.80128,65.60032 C204.80128,65.75072 204.77248,65.89792 204.76608,66.04832 L204.76928,66.04832 L204.76288,66.08032 C204.73408,66.78112 204.63168,67.46272 204.47168,68.13472 L196.86848,121.77312 C207.57888,127.88512 212.83328,132.65952 213.66208,137.08832 C214.02688,139.04352 213.54368,140.87712 212.27008,142.39712 C210.71488,144.24672 208.15488,145.16832 204.37248,145.16832 C201.55328,145.16832 198.03968,144.64672 193.77088,143.62592 L193.36128,146.51872 L187.02528,145.62272 L187.54688,141.93632 C167.81888,136.10912 140.75648,123.77952 127.76768,117.63232 C126.43328,118.73952 124.74688,119.43072 122.88448,119.43072 C118.64768,119.43072 115.19808,115.98112 115.19808,111.74112 C115.19808,107.50112 118.64768,104.05152 122.88448,104.05152 C127.12448,104.05152 130.57408,107.50112 130.57408,111.74112 C130.57408,111.78592 130.56128,111.83072 130.56128,111.87552 C141.60128,117.08832 168.87488,129.60352 188.45568,135.52672 L196.61248,77.99392 C182.47168,87.67712 152.17728,92.80032 123.20128,92.80032 C94.17408,92.80032 63.83168,87.66112 49.72288,77.94912 L66.02048,197.00832 C66.03968,197.15232 66.04928,197.29952 66.04928,197.44352 C66.04928,202.29472 87.74208,211.20032 123.18208,211.20032 C131.03168,211.20032 138.76928,210.72352 146.17088,209.78592 L146.17088,209.78592 Z M204.69248,185.18112 L212.27968,192.76512 L207.75168,197.28992 L199.26208,188.80032 L184.05248,188.80032 L191.28128,201.33472 L203.47968,204.76832 L201.74528,210.92512 L191.58848,208.06752 L188.81408,218.42912 L182.63168,216.77152 L185.85408,204.73632 L178.32128,191.67072 L170.88768,204.52512 L174.01408,216.80992 L167.81568,218.38752 L165.21088,208.16352 L154.85248,210.93792 L153.19808,204.75552 L165.22688,201.53312 L172.59328,188.80032 L157.58848,188.80032 L148.85568,197.31872 L144.38848,192.73632 L151.94368,185.36672 L144.35968,177.78272 L148.88448,173.25792 L158.02368,182.40032 L172.97088,182.40032 L165.34208,169.20672 L153.15968,165.77952 L154.89088,159.61952 L165.05088,162.47712 L167.82528,152.11872 L174.00768,153.77632 L170.77888,165.83072 L178.32128,178.87392 L185.74528,166.00032 L182.62208,153.73472 L188.82048,152.15712 L191.42848,162.38432 L201.78368,159.60992 L203.44128,165.78912 L191.39008,169.01792 L183.67808,182.40032 L198.37888,182.40032 L207.78048,173.22912 L212.25088,177.81152 L204.69248,185.18112 Z" fill="#FFFFFF"></path>
    </g>
</svg>

<svg preserveAspectRatio="xMidYMid" viewBox="0 0 256 256" xmlns="http://www.w3.org/2000/svg">
  <defs>
    <linearGradient id="aws-glacier_svg__a" x1="0%" x2="100%" y1="100%" y2="0%">
      <stop offset="0%" stop-color="#1B660F"/>
      <stop offset="100%" stop-color="#6CAE3E"/>
    </linearGradient>
  </defs>
  <path fill="url(#aws-glacier_svg__a)" d="M0 0h256v256H0z"/>
  <path fill="#FFF" d="M48.212 66.919C50.91 76.375 82.075 86.4 123.202 86.4c41.055 0 72.185-9.99 74.972-19.433l.205-1.44C198.145 61.312 173.966 44.8 123.2 44.8c-50.774 0-74.947 16.516-75.18 20.73l.191 1.389Zm147.69 61.686-1.226 8.65c10.752 2.646 12.682 1.03 12.701 1.014.003-.077-.144-2.883-11.475-9.664Zm-49.731 81.18.806 6.35c-7.67.973-15.677 1.465-23.795 1.465-24.426 0-63.1-5.41-63.53-19.913L41.9 68.01c-.144-.624-.23-1.26-.263-1.907l-.01-.067h.004c-.006-.148-.029-.288-.029-.436 0-11.09 31.786-27.2 81.6-27.2 49.811 0 81.6 16.11 81.6 27.2 0 .15-.029.298-.035.448h.003l-.006.032a10.74 10.74 0 0 1-.291 2.055l-7.604 53.638c10.71 6.112 15.965 10.887 16.794 15.315.365 1.956-.118 3.79-1.392 5.31-1.555 1.849-4.115 2.77-7.898 2.77-2.819 0-6.332-.521-10.601-1.542l-.41 2.893-6.336-.896.522-3.687c-19.728-5.827-46.79-18.156-59.78-24.304-1.334 1.108-3.02 1.799-4.883 1.799-4.236 0-7.686-3.45-7.686-7.69s3.45-7.69 7.686-7.69c4.24 0 7.69 3.45 7.69 7.69 0 .045-.013.09-.013.135 11.04 5.212 38.314 17.728 57.895 23.65l8.156-57.532c-14.14 9.683-44.435 14.806-73.41 14.806-29.028 0-59.37-5.139-73.48-14.85L66.02 197.007c.02.144.03.292.03.436 0 4.85 21.692 13.756 57.132 13.756 7.85 0 15.587-.476 22.989-1.414Zm58.521-24.604 7.588 7.584-4.528 4.525-8.49-8.49h-15.21l7.23 12.535 12.198 3.433-1.735 6.157-10.157-2.857-2.774 10.361-6.182-1.657 3.222-12.036-7.533-13.065-7.433 12.854 3.126 12.285-6.198 1.578-2.605-10.224-10.359 2.774-1.654-6.182 12.029-3.223 7.366-12.733h-15.005l-8.732 8.519-4.468-4.583 7.556-7.37-7.584-7.583 4.524-4.525 9.14 9.142h14.947l-7.629-13.193-12.182-3.427 1.73-6.16 10.16 2.857 2.775-10.358 6.183 1.657-3.23 12.055 7.543 13.043L185.745 166l-3.123-12.265 6.198-1.578 2.608 10.227 10.356-2.774 1.657 6.18-12.05 3.228-7.713 13.382h14.7l9.402-9.17 4.47 4.582-7.558 7.37Z"/>
</svg>
